actions/22x22-dark/depth16to8.svg

<svg viewBox="0 0 22 22" xmlns="http://www.w3.org/2000/svg"><path d="m16.605469 12.402344c-.559076 0-1.020335.171578-1.382813.515625-.362478.337903-.542969.761558-.542968 1.271484 0 .258035.076876.50649.230468.746094.153593.23346.35024.426486.589844.580078v.037109c-.307185.153593-.555639.366397-.746094.636719-.190454.264179-.287109.571685-.287109.921875 0 .534501.20556.983225.617187 1.345703.411628.362478.919403.542969 1.521485.542969s1.109857-.180491 1.521484-.542969c.411628-.362478.617188-.811202.617188-1.345703 0-.35019-.096655-.657696-.28711-.921875-.190454-.270322-.438909-.483126-.746093-.636719v-.037109c.239604-.153592.436251-.346618.589843-.580078.153593-.239604.230469-.488059.230469-.746094 0-.509926-.180491-.933581-.542969-1.271484-.362478-.344047-.823736-.515625-1.382812-.515625zm0 .810547c.307184 0 .562883.085789.765625.257812.196598.172024.294922.406275.294922.701172s-.098324.534439-.294922.71875c-.202742.178167-.458441.265625-.765625.265625-.307185 0-.559261-.087458-.75586-.265625-.202741-.184311-.304687-.423853-.304687-.71875s.101946-.529148.304687-.701172c.196599-.172023.448675-.257812.75586-.257812zm0 2.736328c.356334 0 .656596.105567.902343.314453.245748.208885.369141.475165.369141.800781 0 .33176-.123393.601661-.369141.810547-.245747.208886-.546009.314453-.902343.314453s-.656596-.105567-.902344-.314453-.369141-.478787-.369141-.810547c0-.325616.123393-.591896.369141-.800781.245748-.208886.54601-.314453.902344-.314453z" fill="#da4453" transform="matrix(1.000000000556 0 0 1.000000000556 -.000002263095 -.000003303307)"/><path d="m9.3085938 3-1.7148438 2.5351562c-.4914954.7188121-.7382812 1.3694742-.7382812 1.953125 0 .5529324.2038912 1.0445509.609375 1.4746094.4116274.4239148.9299839.6347656 1.5566406.6347656.5836508 0 1.0878036-.2108508 1.5117186-.6347656.430059-.4239148.644531-.9155333.644531-1.4746094 0-.5713634-.20556-1.0576912-.617187-1.4570312-.411628-.4054837-.8620203-.6074219-1.3535158-.6074219-.3133283 0-.5475795.0481853-.7011718.1464844l-.0175782-.0175781 1.5019532-2.0820313zm-4.1992188.1464844-1.8535156.8671875.3242187.71875 1.2246094-.5351563v5.2539063h.8476563v-6.3046875zm3.9121094 3.0703125c.3563342 0 .6602179.1250617.9121094.3769531.2580352.2457477.3886722.5479627.3886722.9042969 0 .3624779-.130637.6663616-.3886722.9121093-.2518915.2457478-.5557752.3671876-.9121094.3671876-.3624779 0-.6716524-.1214398-.9296875-.3671876-.2518914-.2457477-.3789063-.5496314-.3789063-.9121093 0-.3563342.1286837-.6585492.3867188-.9042969.2580351-.2518914.5655408-.3769531.921875-.3769531z" fill="#1d99f3" transform="matrix(1.000000000556 0 0 1.000000000556 .000002464142 .00000286866)"/><path d="m12.310547 3.9824219c-.614468.0868919-.86975.8697408-.109375 1.1582031 1.398732.1780888 2.705015.9686995 3.490234 2.2695312.228915.3792153.393973.779156.507813 1.1855469l-.611328.0058594c-.318181.0028279-.43451.2286543-.261719.5058594l1.189453 1.9042971c.173159.277704.438557.277676.59375 0l1.080078-1.9316409c.155306-.2778084.023334-.5008087-.294922-.4980469v-.0019531l-1.183593.0117188.714843-.0136719c-.136962-.613616-.369872-1.216899-.71289-1.7851562-.935615-1.5499751-2.463357-2.5210688-4.119141-2.8007813-.100504-.019425-.195422-.0221788-.283203-.0097656zm-5.5058595 6.8242191c-.1076753.000201-.2114662.068193-.2890625.207031l-1.0800781 1.93164c-.1553058.277809-.0233343.500809.2949219.498047v.001953l1.1835937-.011718-.7148437.015625c.1369623.613616.3679188 1.214946.7109374 1.783203.9356144 1.549975 2.4653099 2.523022 4.1210938 2.802734.804034.1554 1.261578-.820719.392578-1.15039-1.398732-.178089-2.7050146-.9687-3.4902342-2.269532-.2289148-.379215-.3939726-.779156-.5078126-1.185546l.6113282-.00586c.3181807-.002828.43451-.228654.2617187-.505859l-1.1894531-1.904297c-.0865795-.138852-.1970122-.207233-.3046875-.207031z" fill="#f2f2f2" transform="matrix(.999999975621 0 0 .999999975621 -.000002231704 -.000000554642)"/></svg>

<?xml version="1.0" encoding="UTF-8" standalone="no"?>
<svg
   xmlns:dc="http://purl.org/dc/elements/1.1/"
   xmlns:cc="http://creativecommons.org/ns#"
   xmlns:rdf="http://www.w3.org/1999/02/22-rdf-syntax-ns#"
   xmlns:svg="http://www.w3.org/2000/svg"
   xmlns="http://www.w3.org/2000/svg"
   xmlns:sodipodi="http://sodipodi.sourceforge.net/DTD/sodipodi-0.dtd"
   xmlns:inkscape="http://www.inkscape.org/namespaces/inkscape"
   viewBox="0 0 22 22"
   id="svg4144"
   version="1.1"
   inkscape:version="0.91 r13725"
   sodipodi:docname="depth16to8.svg">
  <metadata
     id="metadata4159">
    <rdf:RDF>
      <cc:Work
         rdf:about="">
        <dc:format>image/svg+xml</dc:format>
        <dc:type
           rdf:resource="http://purl.org/dc/dcmitype/StillImage" />
        <dc:title></dc:title>
      </cc:Work>
    </rdf:RDF>
  </metadata>
  <sodipodi:namedview
     pagecolor="#ffffff"
     bordercolor="#666666"
     borderopacity="1"
     objecttolerance="10"
     gridtolerance="10"
     guidetolerance="10"
     inkscape:pageopacity="0"
     inkscape:pageshadow="2"
     inkscape:window-width="640"
     inkscape:window-height="480"
     id="namedview4157"
     showgrid="false"
     showguides="false"
     inkscape:zoom="29.954545"
     inkscape:cx="5.0576631"
     inkscape:cy="11"
     inkscape:current-layer="layer1" />
  <defs
     id="defs3051">
    <style
       type="text/css"
       id="current-color-scheme">
      .ColorScheme-Text {
        color:#f2f2f2
      }
      </style>
  </defs>
  <g
     inkscape:label="Layer 1"
     inkscape:groupmode="layer"
     id="layer1"
     transform="translate(-544.57141,-742.93359)">
    <g
       id="layer1-9"
       inkscape:label="Capa 1"
       transform="matrix(-1,0,0,-1,1092.0562,1507.3017)">
      <g
         transform="translate(-0.52358024,-0.03300128)"
         id="g4212">
        <g
           transform="matrix(0.94261801,0,0,0.94261801,12.58775,42.6515)"
           id="g4221">
          <g
             transform="matrix(1.3035382,0,0,-1.3035382,-139.97056,1734.9849)"
             id="text4146"
             style="font-style:normal;font-weight:normal;font-size:7.5px;line-height:125%;font-family:sans-serif;letter-spacing:0px;word-spacing:0px;fill:#da4453;fill-opacity:1;stroke:none;stroke-width:1px;stroke-linecap:butt;stroke-linejoin:miter;stroke-opacity:1">
            <path
               style="font-style:normal;font-variant:normal;font-weight:normal;font-stretch:normal;font-family:'Product Sans';-inkscape-font-specification:'Product Sans';fill:#da4453;fill-opacity:1"
               d="M 16.605469 12.402344 C 16.046393 12.402344 15.585134 12.573922 15.222656 12.917969 C 14.860178 13.255872 14.679687 13.679527 14.679688 14.189453 C 14.679688 14.447488 14.756564 14.695943 14.910156 14.935547 C 15.063749 15.169007 15.260396 15.362033 15.5 15.515625 L 15.5 15.552734 C 15.192815 15.706327 14.944361 15.919131 14.753906 16.189453 C 14.563452 16.453632 14.466797 16.761138 14.466797 17.111328 C 14.466797 17.645829 14.672357 18.094553 15.083984 18.457031 C 15.495612 18.819509 16.003387 19 16.605469 19 C 17.207551 19 17.715326 18.819509 18.126953 18.457031 C 18.538581 18.094553 18.744141 17.645829 18.744141 17.111328 C 18.744141 16.761138 18.647486 16.453632 18.457031 16.189453 C 18.266577 15.919131 18.018122 15.706327 17.710938 15.552734 L 17.710938 15.515625 C 17.950542 15.362033 18.147189 15.169007 18.300781 14.935547 C 18.454374 14.695943 18.53125 14.447488 18.53125 14.189453 C 18.53125 13.679527 18.350759 13.255872 17.988281 12.917969 C 17.625803 12.573922 17.164545 12.402344 16.605469 12.402344 z M 16.605469 13.212891 C 16.912653 13.212891 17.168352 13.29868 17.371094 13.470703 C 17.567692 13.642727 17.666016 13.876978 17.666016 14.171875 C 17.666016 14.466772 17.567692 14.706314 17.371094 14.890625 C 17.168352 15.068792 16.912653 15.15625 16.605469 15.15625 C 16.298284 15.15625 16.046208 15.068792 15.849609 14.890625 C 15.646868 14.706314 15.544922 14.466772 15.544922 14.171875 C 15.544922 13.876978 15.646868 13.642727 15.849609 13.470703 C 16.046208 13.29868 16.298284 13.212891 16.605469 13.212891 z M 16.605469 15.949219 C 16.961803 15.949219 17.262065 16.054786 17.507812 16.263672 C 17.75356 16.472557 17.876953 16.738837 17.876953 17.064453 C 17.876953 17.396213 17.75356 17.666114 17.507812 17.875 C 17.262065 18.083886 16.961803 18.189453 16.605469 18.189453 C 16.249135 18.189453 15.948873 18.083886 15.703125 17.875 C 15.457377 17.666114 15.333984 17.396213 15.333984 17.064453 C 15.333984 16.738837 15.457377 16.472557 15.703125 16.263672 C 15.948873 16.054786 16.249135 15.949219 16.605469 15.949219 z "
               transform="matrix(-0.81384276,0,0,0.81384276,543.12561,743.59055)"
               id="path4169" />
          </g>
          <g
             transform="matrix(-1.3035382,0,0,-1.3035382,1262.117,1746.2797)"
             id="text4146-7"
             style="font-style:normal;font-weight:normal;font-size:7.5px;line-height:125%;font-family:sans-serif;letter-spacing:0px;word-spacing:0px;fill:#1d99f3;fill-opacity:1;stroke:none;stroke-width:1px;stroke-linecap:butt;stroke-linejoin:miter;stroke-opacity:1">
            <path
               style="font-style:normal;font-variant:normal;font-weight:normal;font-stretch:normal;font-family:'Product Sans';-inkscape-font-specification:'Product Sans';fill:#1d99f3;fill-opacity:1"
               d="M 9.3085938 3 L 7.59375 5.5351562 C 7.1022546 6.2539683 6.8554688 6.9046304 6.8554688 7.4882812 C 6.8554688 8.0412136 7.05936 8.5328321 7.4648438 8.9628906 C 7.8764712 9.3868054 8.3948277 9.5976562 9.0214844 9.5976562 C 9.6051352 9.5976562 10.109288 9.3868054 10.533203 8.9628906 C 10.963262 8.5389758 11.177734 8.0473573 11.177734 7.4882812 C 11.177734 6.9169178 10.972174 6.43059 10.560547 6.03125 C 10.148919 5.6257663 9.6985267 5.4238281 9.2070312 5.4238281 C 8.8937029 5.4238281 8.6594517 5.4720134 8.5058594 5.5703125 L 8.4882812 5.5527344 L 9.9902344 3.4707031 L 9.3085938 3 z M 5.109375 3.1464844 L 3.2558594 4.0136719 L 3.5800781 4.7324219 L 4.8046875 4.1972656 L 4.8046875 9.4511719 L 5.6523438 9.4511719 L 5.6523438 3.1464844 L 5.109375 3.1464844 z M 9.0214844 6.2167969 C 9.3778186 6.2167969 9.6817023 6.3418586 9.9335938 6.59375 C 10.191629 6.8394977 10.322266 7.1417127 10.322266 7.4980469 C 10.322266 7.8605248 10.191629 8.1644085 9.9335938 8.4101562 C 9.6817023 8.655904 9.3778186 8.7773438 9.0214844 8.7773438 C 8.6590065 8.7773438 8.349832 8.655904 8.0917969 8.4101562 C 7.8399055 8.1644085 7.7128906 7.8605248 7.7128906 7.4980469 C 7.7128906 7.1417127 7.8415743 6.8394977 8.0996094 6.59375 C 8.3576445 6.3418586 8.6651502 6.2167969 9.0214844 6.2167969 z "
               transform="matrix(0.81384276,0,0,0.81384276,532.47583,752.25528)"
               id="path4172" />
          </g>
          <path
             style="fill:currentColor;fill-opacity:1;stroke:none"
             class="ColorScheme-Text"
             d="M 12.310547 3.9824219 C 11.696079 4.0693138 11.440797 4.8521627 12.201172 5.140625 C 13.599904 5.3187138 14.906187 6.1093245 15.691406 7.4101562 C 15.920321 7.7893715 16.085379 8.1893122 16.199219 8.5957031 L 15.587891 8.6015625 C 15.26971 8.6043904 15.153381 8.8302168 15.326172 9.1074219 L 16.515625 11.011719 C 16.688784 11.289423 16.954182 11.289395 17.109375 11.011719 L 18.189453 9.0800781 C 18.344759 8.8022697 18.212787 8.5792694 17.894531 8.5820312 L 17.894531 8.5800781 L 16.710938 8.5917969 L 17.425781 8.578125 C 17.288819 7.964509 17.055909 7.361226 16.712891 6.7929688 C 15.777276 5.2429937 14.249534 4.2719 12.59375 3.9921875 C 12.493246 3.9727625 12.398328 3.9700087 12.310547 3.9824219 z M 6.8046875 10.806641 C 6.6970122 10.806842 6.5932213 10.874834 6.515625 11.013672 L 5.4355469 12.945312 C 5.2802411 13.223121 5.4122126 13.446121 5.7304688 13.443359 L 5.7304688 13.445312 L 6.9140625 13.433594 L 6.1992188 13.449219 C 6.3361811 14.062835 6.5671376 14.664165 6.9101562 15.232422 C 7.8457706 16.782397 9.3754661 17.755444 11.03125 18.035156 C 11.835284 18.190556 12.292828 17.214437 11.423828 16.884766 C 10.025096 16.706677 8.7188134 15.916066 7.9335938 14.615234 C 7.704679 14.236019 7.5396212 13.836078 7.4257812 13.429688 L 8.0371094 13.423828 C 8.3552901 13.421 8.4716194 13.195174 8.2988281 12.917969 L 7.109375 11.013672 C 7.0227955 10.87482 6.9123628 10.806439 6.8046875 10.806641 z "
             transform="matrix(-1.0608751,0,0,-1.0608751,568.01442,765.68621)"
             id="path8-3" />
        </g>
      </g>
    </g>
  </g>
</svg>
